styles/aca/aca.CUBE
#Created by: Adobe Photoshop Export Color Lookup Plugin
TITLE "aca"
#LUT size
LUT_3D_SIZE 8
#data domain
#LUT data points
DOMAIN_MIN 0.000000 0.000000 0.000000
DOMAIN_MAX 0.903226 0.903226 0.903226
0.000000 0.000000 0.000000
0.067902 0.000488 0.000488
0.178741 0.002655 0.002655
0.301971 0.013855 0.013855
0.438293 0.028107 0.028107
0.585297 0.044342 0.044342
0.741302 0.062042 0.062042
0.905334 0.081024 0.081024
0.019958 0.036835 0.016876
0.044556 0.042816 0.018494
0.145996 0.066376 0.024200
0.303528 0.075653 0.022034
0.439453 0.081085 0.034851
0.586182 0.090057 0.049988
0.742035 0.102020 0.066925
0.905945 0.116302 0.085266
0.063110 0.100616 0.056061
0.083649 0.103943 0.057526
0.118317 0.114685 0.061584
0.218445 0.145325 0.074799
0.381958 0.170197 0.073547
0.572968 0.181641 0.069519
0.744049 0.186951 0.078979
0.907654 0.194305 0.095917
0.116425 0.176971 0.104919
0.131287 0.176361 0.107483
0.165833 0.190979 0.106995
0.205475 0.199615 0.113983
0.300323 0.230835 0.133942
0.466766 0.268677 0.135437
0.659515 0.291565 0.132751
0.873352 0.304382 0.127808
0.176208 0.262054 0.159912
0.188446 0.261414 0.161865
0.216492 0.266724 0.163452
0.259491 0.290131 0.162933
0.302277 0.293976 0.172729
0.389954 0.322205 0.198730
0.558380 0.370514 0.203735
0.753265 0.403748 0.202484
0.241150 0.354095 0.219666
0.251373 0.353455 0.221222
0.273407 0.352844 0.225189
0.313934 0.369324 0.223602
0.358887 0.395630 0.223846
0.406891 0.396027 0.236542
0.490021 0.421387 0.267120
0.656555 0.475708 0.276367
0.310455 0.451965 0.283417
0.319153 0.451447 0.284729
0.338806 0.450653 0.288086
0.372925 0.457947 0.289337
0.419495 0.480652 0.288452
0.466400 0.507080 0.289978
0.518127 0.504517 0.304596
0.605530 0.531067 0.336731
0.383484 0.555054 0.350708
0.391022 0.554565 0.351807
0.408661 0.553711 0.354675
0.436218 0.554077 0.359314
0.481079 0.571777 0.357025
0.532684 0.600037 0.356598
0.582764 0.623444 0.360840
0.635193 0.618713 0.376404
0.006500 0.006500 0.023163
0.034302 0.007996 0.030365
0.131866 0.015503 0.050079
0.294189 0.016083 0.068054
0.438293 0.028107 0.075958
0.585297 0.044342 0.085358
0.741302 0.062042 0.097809
0.905334 0.081024 0.112549
0.015167 0.031647 0.031647
0.070007 0.070007 0.070007
0.173676 0.066345 0.066345
0.296875 0.067078 0.067078
0.433563 0.072937 0.072937
0.580902 0.082611 0.082611
0.737305 0.095306 0.095306
0.901611 0.110260 0.110260
0.056610 0.097351 0.070007
0.103455 0.128143 0.098633
0.138733 0.136353 0.100250
0.253235 0.162628 0.103394
0.421631 0.173523 0.093048
0.583984 0.176361 0.094788
0.739716 0.181091 0.106201
0.903595 0.188873 0.120087
0.115326 0.178467 0.117310
0.148376 0.198853 0.138580
0.180237 0.205261 0.139862
0.221252 0.216370 0.143616
0.324585 0.247864 0.158173
0.493988 0.278198 0.153870
0.688171 0.294312 0.146790
0.901642 0.302521 0.139099
0.176117 0.264160 0.170105
0.202087 0.279755 0.187164
0.227783 0.279907 0.190796
0.271423 0.301147 0.188904
0.314880 0.307373 0.196350
0.407928 0.336761 0.219055
0.578766 0.380890 0.220062
0.774658 0.409515 0.215790
0.241150 0.355957 0.228210
0.262665 0.368744 0.242279
0.284912 0.367737 0.245911
0.323212 0.379120 0.245911
0.369934 0.405548 0.245026
0.417145 0.406921 0.255920
0.499786 0.431244 0.285492
0.672546 0.485474 0.290649
0.310455 0.453583 0.290710
0.328613 0.464355 0.302612
0.348511 0.463318 0.305756
0.380554 0.467010 0.308655
0.427917 0.488861 0.306549
0.474426 0.516083 0.307037
0.526703 0.513611 0.320892
0.613678 0.539429 0.352264
0.383484 0.556458 0.357056
0.399170 0.565643 0.367249
0.416901 0.564697 0.369995
0.444092 0.563904 0.374878
0.487762 0.579010 0.373444
0.539490 0.606445 0.372345
0.589630 0.631104 0.375397
0.642456 0.626434 0.390381
0.016327 0.016327 0.058228
0.043030 0.018585 0.069733
0.090302 0.027130 0.080994
0.186462 0.050079 0.108948
0.352966 0.056122 0.138000
0.547028 0.056976 0.160309
0.741302 0.062042 0.175690
0.905334 0.081024 0.183472
0.026031 0.044189 0.066864
0.081421 0.081421 0.108093
0.124512 0.084473 0.118958
0.236908 0.090942 0.140045
0.406006 0.083435 0.156830
0.580902 0.082581 0.167358
0.737335 0.095276 0.172638
0.901611 0.110229 0.180878
0.052094 0.089172 0.089172
0.095856 0.120758 0.120758
0.172180 0.172180 0.172180
0.292114 0.167145 0.167145
0.427551 0.163940 0.163940
0.574249 0.164734 0.164734
0.730408 0.169342 0.169342
0.894653 0.177338 0.177338
0.101257 0.165314 0.135712
0.137695 0.192993 0.159698
0.209961 0.239777 0.204041
0.252350 0.249451 0.205444
0.377686 0.278503 0.208252
0.555817 0.289642 0.192291
0.735687 0.290894 0.184784
0.898804 0.292297 0.191803
0.164551 0.257812 0.188568
0.198486 0.280762 0.207764
0.256409 0.316284 0.244720
0.295990 0.324646 0.245880
0.342010 0.336243 0.249084
0.450378 0.368530 0.264404
0.626221 0.401672 0.257538
0.825562 0.419495 0.246368
0.238373 0.356842 0.246429
0.261353 0.371307 0.260925
0.310425 0.400909 0.292816
0.344421 0.402527 0.296509
0.394073 0.427490 0.293732
0.440674 0.431915 0.301239
0.534515 0.459930 0.325256
0.710541 0.507660 0.325409
0.308868 0.455475 0.307129
0.328369 0.467682 0.319244
0.370789 0.492767 0.347168
0.400574 0.491608 0.352051
0.446289 0.507385 0.350494
0.496002 0.535736 0.348999
0.547058 0.535248 0.360199
0.633270 0.559448 0.389984
0.383087 0.559265 0.371826
0.399170 0.568909 0.382172
0.436554 0.590820 0.406769
0.464081 0.589569 0.411194
0.504089 0.597046 0.412598
0.555939 0.622040 0.410461
0.606110 0.649475 0.410980
0.660187 0.645325 0.424835
0.027832 0.027832 0.099335
0.053467 0.031830 0.106537
0.106964 0.038971 0.136902
0.160309 0.057098 0.145264
0.248871 0.088745 0.173370
0.418182 0.100586 0.211426
0.615265 0.104950 0.241425
0.832428 0.105774 0.266693
0.039124 0.058746 0.109283
0.095856 0.095856 0.152496
0.134125 0.099670 0.167816
0.189697 0.106140 0.177948
0.287781 0.126740 0.202698
0.457764 0.128632 0.232483
0.654388 0.125641 0.255920
0.869415 0.121826 0.276703
0.065277 0.103912 0.130646
0.110107 0.135498 0.164185
0.185120 0.185120 0.216858
0.235809 0.187866 0.229248
0.358765 0.193390 0.251434
0.537506 0.179993 0.267456
0.730469 0.169067 0.278961
0.894653 0.177185 0.280945
0.098450 0.158569 0.158569
0.133026 0.183624 0.183624
0.200684 0.230896 0.230896
0.291534 0.291534 0.291534
0.423431 0.285828 0.285828
0.568329 0.280823 0.280823
0.723297 0.278381 0.278381
0.886627 0.279175 0.279175
0.152710 0.240662 0.209869
0.181488 0.262726 0.230103
0.242950 0.308685 0.270721
0.332825 0.366272 0.326202
0.380249 0.377014 0.327423
0.514587 0.408508 0.330566
0.701599 0.419922 0.310852
0.893829 0.419769 0.296570
0.217010 0.340332 0.266876
0.242859 0.359039 0.283173
0.303528 0.400421 0.319000
0.380798 0.447510 0.367645
0.425995 0.457458 0.368469
0.475891 0.469421 0.371521
0.588928 0.502777 0.388214
0.772308 0.537964 0.378723
0.293488 0.446686 0.328827
0.317291 0.462952 0.342072
0.368561 0.495728 0.372101
0.435303 0.535706 0.415619
0.474823 0.538116 0.419617
0.529419 0.565857 0.415985
0.578979 0.569244 0.423279
0.674469 0.596375 0.448364
0.378296 0.559052 0.393982
0.395447 0.569733 0.404724
0.435425 0.594543 0.429871
0.495605 0.630127 0.469391
0.530762 0.628876 0.475098
0.582184 0.647797 0.472412
0.634552 0.677765 0.470215
0.688843 0.675873 0.481476
0.040558 0.040558 0.144867
0.067505 0.045563 0.149353
0.111816 0.054779 0.178009
0.185760 0.069397 0.213593
0.238464 0.091461 0.217133
0.323059 0.129120 0.244781
0.488342 0.147888 0.288177
0.687378 0.156403 0.325348
0.053314 0.074158 0.156128
0.111725 0.111725 0.201172
0.146362 0.117340 0.210907
0.209320 0.121063 0.243286
0.263580 0.133423 0.245117
0.348114 0.164551 0.268829
0.520081 0.174316 0.308350
0.718750 0.176849 0.340424
0.080902 0.121216 0.178467
0.127045 0.153107 0.213715
0.201019 0.201019 0.266541
0.245483 0.204468 0.283905
0.307068 0.209320 0.293549
0.409393 0.229858 0.317688
0.585846 0.227753 0.347504
0.786011 0.220673 0.370789
0.112854 0.174561 0.204254
0.148193 0.199707 0.230530
0.216064 0.246490 0.279297
0.305847 0.305847 0.341095
0.361908 0.308472 0.354675
0.493896 0.313446 0.377991
0.681335 0.296539 0.393921
0.886719 0.278503 0.405396
0.150665 0.235992 0.235992
0.178680 0.256317 0.256317
0.238007 0.298309 0.298309
0.322357 0.356323 0.356323
0.423615 0.423615 0.423615
0.565155 0.417419 0.417419
0.717957 0.411591 0.411591
0.879700 0.407288 0.407288
0.208435 0.321869 0.289703
0.232208 0.340179 0.306976
0.285645 0.380188 0.344482
0.365356 0.438904 0.397156
0.468048 0.504120 0.460846
0.519196 0.515686 0.461975
0.661163 0.549286 0.465454
0.856384 0.561310 0.443146
0.275604 0.427338 0.352203
0.295746 0.443085 0.365326
0.345459 0.479309 0.397308
0.426361 0.534241 0.445892
0.517578 0.589630 0.503326
0.566772 0.600525 0.504211
0.619965 0.613007 0.506836
0.738220 0.647491 0.523895
0.351807 0.539459 0.416412
0.371185 0.552887 0.428436
0.418457 0.585388 0.456360
0.492828 0.633362 0.498871
0.572815 0.680939 0.551483
0.616547 0.683990 0.555542
0.675049 0.713959 0.551178
0.727051 0.716553 0.558441
0.054321 0.054321 0.193970
0.082764 0.059631 0.198669
0.123657 0.070953 0.222839
0.188263 0.087372 0.261780
0.270844 0.103363 0.293152
0.323059 0.129120 0.295013
0.413116 0.169525 0.324463
0.562866 0.197296 0.367828
0.067780 0.089691 0.205750
0.128448 0.128448 0.253235
0.163361 0.135406 0.258972
0.213593 0.140625 0.289124
0.293091 0.147034 0.321411
0.344666 0.165314 0.319092
0.431885 0.201111 0.344696
0.589325 0.221588 0.386505
0.097443 0.139252 0.230072
0.144867 0.171631 0.266754
0.218719 0.218719 0.320068
0.258270 0.224457 0.330627
0.328308 0.225586 0.365448
0.385223 0.235596 0.364319
0.469757 0.266602 0.385559
0.646606 0.273102 0.425232
0.130310 0.193756 0.256226
0.166351 0.218994 0.283478
0.234619 0.265411 0.333344
0.322540 0.322540 0.394592
0.371582 0.325867 0.413696
0.438080 0.329956 0.423279
0.545380 0.350708 0.447479
0.729706 0.344910 0.477234
0.165710 0.252625 0.284668
0.194275 0.273071 0.305817
0.254120 0.314941 0.349091
0.338440 0.372467 0.408447
0.439423 0.439423 0.477234
0.499512 0.442017 0.491730
0.638947 0.446777 0.516235
0.834076 0.427490 0.532410
0.207489 0.319794 0.319794
0.230743 0.336639 0.336639
0.282776 0.373749 0.373749
0.360107 0.427643 0.427643
0.456696 0.493469 0.493469
0.566010 0.566010 0.566010
0.715698 0.559387 0.559387
0.875305 0.553040 0.553040
0.268127 0.409058 0.375244
0.287994 0.423431 0.389221
0.334839 0.458832 0.423218
0.407471 0.512115 0.473816
0.500793 0.580048 0.535614
0.613373 0.651459 0.605743
0.667297 0.663605 0.606812
0.816376 0.699127 0.609985
0.338867 0.518799 0.442963
0.356354 0.532135 0.454865
0.398010 0.563995 0.482544
0.466309 0.614105 0.526459
0.562469 0.679047 0.584625
0.664551 0.740662 0.649445
0.716766 0.752289 0.650330
0.772552 0.765167 0.652649
0.068939 0.068939 0.246155
0.098724 0.074524 0.251068
0.138855 0.088226 0.269684
0.196808 0.106018 0.309204
0.276245 0.123108 0.352661
0.357605 0.141937 0.375885
0.413116 0.169525 0.377960
0.507965 0.212280 0.409058
0.083069 0.105865 0.258453
0.145813 0.145813 0.308044
0.181580 0.152893 0.313873
0.226257 0.160431 0.337952
0.295624 0.168274 0.375549
0.379303 0.178650 0.400970
0.431885 0.201019 0.398865
0.524384 0.240082 0.426849
0.114746 0.157959 0.284698
0.162537 0.189972 0.321777
0.237427 0.237427 0.376587
0.276642 0.244476 0.382446
0.331635 0.247375 0.414398
0.416931 0.250183 0.446594
0.469421 0.265869 0.440796
0.559204 0.300140 0.464661
0.148499 0.213593 0.311462
0.185364 0.239197 0.339661
0.254456 0.285706 0.390808
0.341187 0.341187 0.451599
0.384430 0.346893 0.463287
0.460358 0.346771 0.500275
0.520081 0.355713 0.497375
0.608093 0.386566 0.517883
0.184540 0.273315 0.340118
0.213531 0.293762 0.361816
0.273865 0.335480 0.405975
0.357971 0.392212 0.465912
0.456909 0.456909 0.533875
0.509430 0.460266 0.554321
0.579865 0.463806 0.564056
0.691742 0.484924 0.588684
0.223602 0.337555 0.371674
0.246948 0.354218 0.388763
0.299194 0.390900 0.426453
0.376801 0.444580 0.481506
0.473572 0.510284 0.548706
0.583527 0.583527 0.623291
0.646606 0.586121 0.638489
0.792480 0.590424 0.663879
0.268127 0.409058 0.409058
0.287872 0.423309 0.423309
0.333740 0.456055 0.456055
0.404419 0.505676 0.505676
0.495148 0.568207 0.568207
0.601379 0.640198 0.640198
0.717224 0.717224 0.717224
0.873993 0.710236 0.710236
0.332153 0.503052 0.467438
0.349152 0.515259 0.479370
0.389862 0.544281 0.507782
0.455475 0.592010 0.554138
0.542389 0.655426 0.614746
0.646667 0.730469 0.683685
0.767365 0.806854 0.759460
0.823303 0.819489 0.760468
0.084290 0.084290 0.301025
0.115326 0.090149 0.306122
0.155975 0.105774 0.319519
0.210236 0.124725 0.359467
0.280975 0.143188 0.403046
0.373138 0.161804 0.448975
0.449585 0.183136 0.463074
0.507965 0.212280 0.465393
0.099030 0.122711 0.313782
0.163757 0.163757 0.365356
0.200378 0.170990 0.371277
0.242981 0.180817 0.388855
0.303436 0.189240 0.426758
0.389008 0.199982 0.468933
0.468353 0.214996 0.484711
0.524384 0.240021 0.483673
0.132599 0.177094 0.341919
0.180817 0.208862 0.379333
0.256866 0.256866 0.435638
0.296600 0.263947 0.441467
0.344788 0.269379 0.466461
0.419495 0.273346 0.505310
0.505737 0.280212 0.527740
0.558960 0.299713 0.522339
0.167328 0.234009 0.369446
0.205078 0.259979 0.398590
0.273987 0.305664 0.449768
0.361053 0.361053 0.511444
0.403687 0.368378 0.517700
0.462860 0.369965 0.551727
0.553070 0.370972 0.584167
0.607239 0.385040 0.576324
0.204102 0.294647 0.398499
0.233582 0.315247 0.420746
0.294556 0.356995 0.465881
0.378937 0.413483 0.526672
0.476166 0.476166 0.593719
0.522339 0.482147 0.606140
0.602844 0.481201 0.644989
0.665131 0.489288 0.641022
0.242920 0.358734 0.429291
0.266846 0.375702 0.447083
0.319824 0.412659 0.485809
0.397522 0.465820 0.541473
0.493744 0.530579 0.609009
0.601929 0.601929 0.682678
0.657104 0.605347 0.704071
0.730591 0.608490 0.713989
0.285187 0.427826 0.463715
0.304932 0.441864 0.478058
0.350800 0.474121 0.511047
0.421265 0.522980 0.560974
0.512299 0.585480 0.624664
0.619171 0.657990 0.698334
0.736725 0.736725 0.777802
0.801849 0.739227 0.793427
0.332153 0.503052 0.503052
0.349152 0.515259 0.515259
0.389862 0.544281 0.544281
0.454437 0.589752 0.589752
0.539307 0.648651 0.648651
0.640778 0.718079 0.718079
0.754883 0.795197 0.795197
0.876190 0.876190 0.876190
