styles/aca/aca.CUBE
#Created by: Adobe Photoshop Export Color Lookup Plugin
TITLE "aca"
#LUT size
LUT_3D_SIZE 32
#data domain
DOMAIN_MIN 0.0 0.0 0.0
DOMAIN_MAX 1.0 1.0 1.0
#LUT data points
0.000000 0.000000 0.000000
0.010284 0.000061 0.000061
0.026245 0.000122 0.000122
0.045807 0.000275 0.000275
0.067902 0.000488 0.000488
0.092499 0.000824 0.000824
0.119141 0.001251 0.001251
0.147949 0.001862 0.001862
0.178741 0.002655 0.002655
0.208130 0.004974 0.004974
0.238495 0.007660 0.007660
0.269806 0.010681 0.010681
0.301971 0.013855 0.013855
0.334900 0.017151 0.017151
0.368683 0.020691 0.020691
0.403107 0.024323 0.024323
0.438293 0.028107 0.028107
0.474121 0.031982 0.031982
0.510590 0.035980 0.035980
0.547607 0.040100 0.040100
0.585297 0.044342 0.044342
0.623474 0.048615 0.048615
0.662262 0.053009 0.053009
0.701477 0.057495 0.057495
0.741302 0.062042 0.062042
0.781555 0.066681 0.066681
0.822327 0.071381 0.071381
0.863586 0.076172 0.076172
0.905334 0.081024 0.081024
0.947479 0.085968 0.085968
0.966919 0.104584 0.104584
0.978699 0.128815 0.128815
0.002716 0.005585 0.002228
0.006897 0.006592 0.002258
0.021637 0.009888 0.002319
0.045258 0.011658 0.001099
0.071075 0.013123 0.000763
0.095520 0.013855 0.001129
0.122192 0.014587 0.001617
0.150757 0.015289 0.002289
0.179108 0.016876 0.004181
0.208435 0.018707 0.006561
0.238770 0.020721 0.009186
0.270050 0.023071 0.012115
0.302216 0.025635 0.015228
0.335175 0.028381 0.018463
0.368866 0.031311 0.021973
0.403320 0.034515 0.025482
0.438507 0.037750 0.029236
0.474274 0.041290 0.033051
0.510742 0.044861 0.037018
0.547760 0.048584 0.041077
0.585419 0.052521 0.045258
0.623596 0.056458 0.049500
0.662354 0.060547 0.053894
0.701630 0.064728 0.058319
0.741394 0.069031 0.062836
0.781708 0.073395 0.067444
0.822479 0.077881 0.072113
0.863708 0.082520 0.076935
0.905426 0.087097 0.081726
0.947571 0.091827 0.086639
0.967010 0.110260 0.105286
0.978729 0.134277 0.129517
0.006958 0.014008 0.005676
0.011841 0.015259 0.005676
0.017151 0.016388 0.005829
0.030640 0.020355 0.007446
0.054718 0.025146 0.006836
0.083527 0.028076 0.005737
0.115662 0.030029 0.004822
0.150970 0.031311 0.004120
0.179504 0.032104 0.006042
0.208832 0.033203 0.008331
0.239105 0.034668 0.010956
0.270386 0.036316 0.013794
0.302460 0.038300 0.016754
0.335419 0.040497 0.019958
0.369110 0.042908 0.023346
0.403564 0.045563 0.026855
0.438721 0.048401 0.030518
0.474487 0.051453 0.034302
0.510895 0.054657 0.038208
0.547974 0.057983 0.042236
0.585571 0.061493 0.046326
0.623749 0.065125 0.050598
0.662506 0.068878 0.054871
0.701752 0.072815 0.059296
0.741547 0.076813 0.063782
0.781830 0.080963 0.068359
0.822571 0.085205 0.072998
0.863831 0.089630 0.077698
0.905518 0.094025 0.082550
0.947662 0.098541 0.087433
0.967072 0.116638 0.106079
0.978821 0.140320 0.130371
0.012726 0.024567 0.010559
0.017761 0.024994 0.010834
0.023804 0.028259 0.010345
0.029755 0.028503 0.011139
0.041992 0.032135 0.014221
0.067047 0.039124 0.014404
0.096680 0.044250 0.014099
0.130188 0.047821 0.013519
0.166351 0.050293 0.013000
0.205261 0.051849 0.012177
0.239685 0.052826 0.013428
0.270844 0.053833 0.016174
0.302917 0.055145 0.019043
0.335785 0.056732 0.022125
0.369476 0.058594 0.025360
0.403900 0.060608 0.028809
0.439026 0.062958 0.032379
0.474792 0.065430 0.036072
0.511139 0.068115 0.039886
0.548248 0.070984 0.043823
0.585815 0.074066 0.047882
0.624023 0.077271 0.052063
0.662750 0.080627 0.056305
0.701965 0.084137 0.060638
0.741730 0.087860 0.065094
0.782013 0.091644 0.069641
0.822784 0.095490 0.074280
0.863983 0.099579 0.078949
0.905670 0.103607 0.083710
0.947845 0.107971 0.088531
0.967163 0.125702 0.107269
0.978912 0.149048 0.131561
0.019958 0.036835 0.016876
0.024902 0.036621 0.017548
0.030945 0.039185 0.017090
0.037384 0.042999 0.016907
0.044556 0.042816 0.018494
0.057068 0.046570 0.022705
0.081848 0.054626 0.024200
0.112366 0.061371 0.024384
0.145996 0.066376 0.024200
0.182770 0.070007 0.023590
0.222015 0.072632 0.022797
0.262787 0.074524 0.022125
0.303528 0.075653 0.022034
0.336334 0.076630 0.024963
0.369995 0.077881 0.028076
0.404358 0.079315 0.031403
0.439453 0.081085 0.034851
0.475189 0.082947 0.038452
0.511597 0.085144 0.042175
0.548584 0.087433 0.046051
0.586182 0.090057 0.049988
0.624329 0.092834 0.054047
0.663025 0.095673 0.058258
0.702240 0.098785 0.062531
0.742035 0.102020 0.066925
0.782288 0.105347 0.071381
0.823029 0.108887 0.075928
0.864258 0.112488 0.080566
0.905945 0.116302 0.085266
0.948029 0.120239 0.090088
0.967285 0.137573 0.108826
0.979004 0.160339 0.133087
0.028992 0.050873 0.024933
0.033875 0.050629 0.025726
0.039307 0.052155 0.025757
0.046478 0.055817 0.025604
0.053528 0.059631 0.025909
0.061340 0.059174 0.028015
0.074738 0.063202 0.032654
0.098022 0.071136 0.035248
0.129089 0.079132 0.035675
0.163208 0.085419 0.035675
0.200226 0.090179 0.035126
0.239410 0.093903 0.034668
0.281006 0.096649 0.033783
0.324493 0.098633 0.032776
0.369049 0.100281 0.032074
0.404968 0.101196 0.034637
0.440033 0.102356 0.037903
0.475708 0.103699 0.041412
0.512085 0.105347 0.045013
0.549011 0.107239 0.048767
0.586609 0.109192 0.052643
0.624725 0.111420 0.056610
0.663422 0.113831 0.060669
0.702637 0.116425 0.064850
0.742401 0.119232 0.069153
0.782623 0.122131 0.073547
0.823334 0.125153 0.078064
0.864594 0.128418 0.082581
0.906219 0.131866 0.087250
0.948334 0.135315 0.092010
0.967438 0.152283 0.110809
0.979156 0.174194 0.135101
0.039642 0.066559 0.034637
0.044189 0.066345 0.035339
0.048828 0.066711 0.035767
0.055725 0.069641 0.035492
0.063629 0.074127 0.035492
0.071381 0.077576 0.036255
0.079376 0.076752 0.038544
0.093567 0.081024 0.043518
0.115082 0.088440 0.047058
0.146271 0.097534 0.047974
0.180847 0.104919 0.048096
0.218018 0.110931 0.047913
0.257874 0.115570 0.047150
0.299591 0.119263 0.046387
0.343201 0.122131 0.045471
0.388214 0.124390 0.044617
0.434784 0.126129 0.043793
0.476379 0.127258 0.045013
0.512695 0.128418 0.048462
0.549622 0.129761 0.052063
0.587158 0.131256 0.055786
0.625275 0.133026 0.059662
0.663910 0.134888 0.063629
0.703156 0.137024 0.067749
0.742889 0.139252 0.071960
0.783051 0.141815 0.076202
0.823792 0.144379 0.080627
0.864960 0.147156 0.085114
0.906586 0.150146 0.089691
0.948730 0.153320 0.094330
0.967621 0.169373 0.113251
0.979370 0.190582 0.137543
0.051056 0.083191 0.045044
0.055206 0.082947 0.045685
0.059235 0.082825 0.046417
0.065582 0.084747 0.046356
0.073395 0.088440 0.046143
0.081940 0.093658 0.046204
0.090271 0.096436 0.047272
0.098389 0.095245 0.049744
0.113251 0.099731 0.054962
0.132782 0.106354 0.059570
0.164398 0.116455 0.060822
0.199341 0.124939 0.061157
0.236847 0.131958 0.061066
0.276703 0.137634 0.060638
0.318451 0.142242 0.059967
0.362152 0.146027 0.059204
0.407745 0.148987 0.058258
0.454773 0.151306 0.057190
0.502991 0.153320 0.056244
0.550385 0.154755 0.056000
0.587891 0.155792 0.059570
0.625946 0.157043 0.063293
0.664551 0.158508 0.067139
0.703735 0.160187 0.071106
0.743439 0.161987 0.075195
0.783600 0.163940 0.079407
0.824310 0.166168 0.083710
0.865479 0.168518 0.088074
0.907043 0.171021 0.092560
0.949188 0.173676 0.097137
0.967896 0.189117 0.116150
0.979614 0.209381 0.140472
0.063110 0.100616 0.056061
0.066925 0.100342 0.056610
0.070740 0.100220 0.057251
0.076202 0.100952 0.057770
0.083649 0.103943 0.057526
0.092194 0.108429 0.057312
0.100830 0.113739 0.057373
0.110046 0.116180 0.058990
0.118317 0.114685 0.061584
0.133728 0.119324 0.067047
0.151062 0.124878 0.072632
0.183380 0.135925 0.074066
0.218445 0.145325 0.074799
0.255737 0.153320 0.075165
0.296143 0.159973 0.074646
0.338165 0.165558 0.074188
0.381958 0.170197 0.073547
0.427490 0.173950 0.072632
0.475037 0.176880 0.071381
0.523285 0.179535 0.070557
0.572968 0.181641 0.069519
0.623932 0.183380 0.068512
0.665314 0.184448 0.071198
0.704407 0.185608 0.075043
0.744049 0.186951 0.078979
0.784241 0.188568 0.083038
0.824860 0.190338 0.087250
0.866028 0.192230 0.091522
0.907654 0.194305 0.095917
0.949677 0.196594 0.100372
0.968201 0.211182 0.119568
0.979889 0.230316 0.143860
0.075714 0.118774 0.067627
0.079254 0.118561 0.068146
0.082855 0.118408 0.068756
0.087524 0.118317 0.069641
0.094604 0.120575 0.069366
0.102875 0.124359 0.069122
0.112000 0.129456 0.069092
0.120361 0.134552 0.069275
0.130463 0.136414 0.071259
0.139038 0.134857 0.074005
0.154999 0.139648 0.079651
0.171661 0.144775 0.085724
0.202576 0.155823 0.088043
0.237976 0.166168 0.089081
0.275970 0.174988 0.089355
0.316345 0.182526 0.089111
0.358215 0.189087 0.089050
0.402527 0.194489 0.088196
0.448212 0.199036 0.087433
0.495300 0.202911 0.086639
0.544739 0.205841 0.085114
0.594482 0.208649 0.084198
0.644714 0.211182 0.083710
0.697510 0.212799 0.082275
0.744873 0.214203 0.083313
0.784973 0.215271 0.087250
0.825623 0.216583 0.091278
0.866730 0.218170 0.095459
0.908264 0.219788 0.099731
0.950348 0.221588 0.104065
0.968506 0.235260 0.123444
0.980194 0.253296 0.147766
0.088837 0.137543 0.079620
0.092102 0.137360 0.080139
0.095490 0.137238 0.080688
0.099915 0.137054 0.081451
0.106049 0.138062 0.081909
0.114075 0.141266 0.081512
0.123138 0.145752 0.081207
0.132782 0.151489 0.081207
0.140686 0.156189 0.081543
0.151611 0.157349 0.083954
0.160522 0.155792 0.086884
0.176971 0.160767 0.092743
0.194092 0.165985 0.099030
0.222473 0.176178 0.102417
0.258179 0.187286 0.103668
0.296631 0.197021 0.103973
0.336670 0.205475 0.104431
0.379059 0.212769 0.104095
0.423584 0.218994 0.103424
0.469421 0.224335 0.102753
0.517120 0.228821 0.101624
0.565369 0.232849 0.101074
0.615784 0.236023 0.099823
0.667511 0.238770 0.098511
0.719574 0.241180 0.097626
0.772461 0.243347 0.096924
0.826508 0.244873 0.095795
0.867554 0.245972 0.099854
0.909027 0.247192 0.103973
0.951080 0.248688 0.108246
0.968872 0.261353 0.127777
0.980560 0.277985 0.152191
0.102417 0.156982 0.092102
0.105438 0.156799 0.092560
0.108612 0.156647 0.093048
0.112885 0.156494 0.093811
0.118073 0.156403 0.094788
0.125824 0.159058 0.094391
0.134613 0.162933 0.093994
0.144043 0.167908 0.093933
0.154205 0.174225 0.094025
0.162292 0.178345 0.094574
0.173462 0.178986 0.097229
0.182678 0.177399 0.100189
0.199615 0.182495 0.106293
0.217102 0.187805 0.112671
0.243103 0.197021 0.117065
0.279144 0.208893 0.118469
0.317474 0.219391 0.119415
0.358185 0.228607 0.119568
0.400452 0.236725 0.119690
0.445221 0.243652 0.119019
0.491119 0.249786 0.118469
0.538361 0.255157 0.117889
0.587341 0.259735 0.117004
0.637756 0.263611 0.115875
0.689423 0.266907 0.114655
0.742279 0.269775 0.113373
0.795197 0.272522 0.112732
0.850739 0.274261 0.110992
0.905914 0.276306 0.110229
0.951935 0.277588 0.112854
0.969269 0.289154 0.132660
0.980957 0.304352 0.157043
0.116425 0.176971 0.104919
0.119202 0.176788 0.105377
0.122253 0.176636 0.105865
0.126312 0.176514 0.106537
0.131287 0.176361 0.107483
0.138000 0.177643 0.107788
0.146515 0.181000 0.107391
0.155975 0.185547 0.106995
0.165833 0.190979 0.106995
0.175873 0.197205 0.107147
0.184875 0.200989 0.108093
0.195984 0.201233 0.110870
0.205475 0.199615 0.113983
0.222809 0.204865 0.120178
0.240723 0.210266 0.126740
0.263977 0.218292 0.132263
0.300323 0.230835 0.133942
0.338745 0.242065 0.135132
0.379425 0.252075 0.135773
0.421844 0.260925 0.135986
0.466766 0.268677 0.135437
0.512817 0.275604 0.134979
0.560089 0.281616 0.134552
0.609772 0.286713 0.133270
0.659515 0.291565 0.132751
0.711273 0.295532 0.131653
0.764984 0.298584 0.129883
0.818787 0.301727 0.128754
0.873352 0.304382 0.127808
0.929504 0.306366 0.126404
0.969757 0.314484 0.135529
0.981415 0.332367 0.162445
0.130829 0.197510 0.118195
0.133484 0.197357 0.118622
0.136292 0.197174 0.119019
0.140137 0.197021 0.119659
0.144958 0.196869 0.120514
0.150787 0.196991 0.121429
0.158905 0.199829 0.121124
0.168274 0.203918 0.120514
0.178009 0.208801 0.120361
0.188293 0.214752 0.120575
0.198059 0.220764 0.120605
0.208099 0.224243 0.122070
0.219116 0.224060 0.124969
0.228851 0.222412 0.128113
0.246582 0.227722 0.134460
0.264923 0.233307 0.141205
0.285431 0.239990 0.147797
0.321991 0.253143 0.149719
0.360901 0.265045 0.150940
0.401947 0.275757 0.151581
0.444305 0.285339 0.152252
0.488861 0.293884 0.152130
0.535065 0.301483 0.151764
0.583130 0.308105 0.151001
0.632935 0.313904 0.149780
0.682739 0.319275 0.149353
0.733704 0.324036 0.148834
0.787537 0.327881 0.147217
0.842285 0.331116 0.145569
0.896820 0.334412 0.144714
0.952881 0.337006 0.143402
0.981934 0.349640 0.160278
0.145569 0.218536 0.131744
0.148071 0.218384 0.132111
0.150757 0.218231 0.132538
0.154449 0.218079 0.133148
0.159027 0.217865 0.133942
0.164520 0.217773 0.134949
0.171722 0.219421 0.135223
0.180969 0.223022 0.134552
0.190308 0.227295 0.134460
0.200836 0.232880 0.134125
0.211639 0.239441 0.134216
0.220703 0.244812 0.134583
0.231964 0.248016 0.136383
0.242798 0.247467 0.139374
0.252777 0.245728 0.142639
0.270935 0.251221 0.149170
0.289642 0.256927 0.156006
0.308838 0.262787 0.163116
0.344238 0.275848 0.165771
0.383148 0.288330 0.167297
0.424255 0.299713 0.168304
0.467255 0.309967 0.168671
0.511627 0.319153 0.169037
0.558075 0.327545 0.168793
0.606232 0.334778 0.168091
0.654755 0.341522 0.167999
0.706055 0.347229 0.166626
0.757935 0.352478 0.165649
0.809937 0.357269 0.165314
0.864716 0.361206 0.163757
0.921143 0.364349 0.161621
0.976257 0.367981 0.161133
0.160767 0.240082 0.145660
0.163055 0.239929 0.146027
0.165588 0.239746 0.146393
0.169128 0.239624 0.146973
0.173584 0.239441 0.147766
0.178833 0.239288 0.148712
0.185089 0.239655 0.149628
0.193817 0.242676 0.149078
0.203400 0.246765 0.148590
0.213318 0.251587 0.148529
0.223969 0.257446 0.148529
0.235291 0.264526 0.148560
0.243927 0.269501 0.148834
0.256409 0.272400 0.151062
0.267059 0.271332 0.154175
0.277252 0.269592 0.157501
0.295807 0.275177 0.164185
0.314880 0.281006 0.171173
0.334381 0.286987 0.178406
0.366577 0.298798 0.182312
0.406036 0.311981 0.183868
0.447479 0.323914 0.184906
0.489838 0.334869 0.186096
0.534943 0.344727 0.186096
0.581573 0.353668 0.185974
0.630096 0.361664 0.185272
0.679382 0.368927 0.184723
0.730164 0.375366 0.183960
0.782135 0.381104 0.183075
0.835022 0.386322 0.182159
0.888794 0.390991 0.181366
0.944427 0.394989 0.180023
0.176208 0.262054 0.159912
0.178406 0.261902 0.160187
0.180817 0.261780 0.160583
0.184174 0.261566 0.161133
0.188446 0.261414 0.161865
0.193542 0.261261 0.162750
0.199402 0.261139 0.163879
0.207367 0.263214 0.163788
0.216492 0.266724 0.163452
0.226715 0.271301 0.162903
0.237152 0.276672 0.162842
0.248016 0.282837 0.162964
0.259491 0.290131 0.162933
0.267731 0.294800 0.163422
0.281372 0.297272 0.166138
0.291901 0.295776 0.169312
0.302277 0.293976 0.172729
0.321136 0.299713 0.179535
0.340546 0.305573 0.186615
0.360413 0.311676 0.193970
0.389954 0.322205 0.198730
0.429077 0.335907 0.200958
0.470398 0.348480 0.202393
0.513611 0.360016 0.203247
0.558380 0.370514 0.203735
0.605194 0.380066 0.203644
0.653809 0.388672 0.203064
0.703308 0.396515 0.202576
0.753265 0.403748 0.202484
0.805328 0.410248 0.201782
0.858215 0.416046 0.200989
0.914124 0.420715 0.198853
0.192017 0.284424 0.174438
0.194061 0.284302 0.174713
0.196381 0.284180 0.175079
0.199615 0.283997 0.175598
0.203644 0.283783 0.176239
0.208557 0.283630 0.177124
0.214233 0.283508 0.178162
0.221130 0.284180 0.178894
0.230255 0.287415 0.178345
0.239990 0.291412 0.178040
0.250427 0.296387 0.177673
0.261353 0.302216 0.177582
0.272980 0.309204 0.177429
0.283600 0.315674 0.177826
0.292603 0.320312 0.178467
0.306854 0.322601 0.181458
0.317139 0.320648 0.184753
0.327759 0.318848 0.188202
0.346985 0.324615 0.195190
0.366669 0.330597 0.202362
0.386810 0.336761 0.209869
0.413086 0.345886 0.215881
0.452637 0.360077 0.218109
0.494354 0.373230 0.219574
0.537994 0.385376 0.220459
0.583099 0.396454 0.221008
0.629547 0.406586 0.221405
0.677643 0.415924 0.221405
0.728027 0.424255 0.220428
0.778137 0.432037 0.220428
0.830383 0.439026 0.219757
0.884338 0.445221 0.218323
0.208099 0.307281 0.189240
0.210052 0.307129 0.189514
0.212250 0.307037 0.189850
0.215332 0.306824 0.190308
0.219238 0.306641 0.190979
0.223999 0.306458 0.191803
0.229492 0.306305 0.192749
0.235687 0.306183 0.193970
0.244263 0.308624 0.193756
0.253937 0.312347 0.193176
0.264160 0.316833 0.192841
0.274841 0.322144 0.192688
0.286255 0.328491 0.192566
0.298096 0.335754 0.192627
0.308197 0.341797 0.192963
0.318298 0.346130 0.194031
0.332397 0.347931 0.197144
0.342896 0.345978 0.200500
0.353699 0.344147 0.204071
0.373230 0.350037 0.211121
0.393280 0.356079 0.218445
0.413696 0.362335 0.226013
0.436798 0.369904 0.233185
0.476410 0.384583 0.235748
0.518463 0.398285 0.237183
0.561920 0.410980 0.238525
0.607269 0.422638 0.239136
0.653259 0.433502 0.240204
0.702209 0.443268 0.239685
0.751984 0.452240 0.239441
0.802979 0.460541 0.238892
0.855164 0.468079 0.238281
0.224518 0.330475 0.204315
0.226379 0.330383 0.204590
0.228485 0.330231 0.204926
0.231354 0.330048 0.205353
0.235138 0.329834 0.205963
0.239716 0.329651 0.206726
0.245117 0.329498 0.207672
0.251129 0.329346 0.208832
0.258728 0.330414 0.209259
0.268097 0.333771 0.208771
0.277985 0.337799 0.208435
0.288727 0.342773 0.208099
0.299896 0.348511 0.207947
0.311737 0.355377 0.207703
0.323669 0.362823 0.208038
0.333313 0.368439 0.208282
0.344543 0.372314 0.209930
0.358398 0.373749 0.213104
0.369110 0.371765 0.216522
0.380096 0.369904 0.220184
0.399933 0.375854 0.227325
0.420227 0.382019 0.234772
0.441010 0.388367 0.242462
0.462097 0.394867 0.250336
0.500793 0.409393 0.253387
0.542786 0.423584 0.255249
0.586517 0.436798 0.256622
0.631622 0.449066 0.257843
0.679138 0.460297 0.257812
0.726837 0.470734 0.258484
0.776733 0.480347 0.258301
0.828003 0.489197 0.257874
0.241150 0.354095 0.219666
0.242950 0.354004 0.219940
0.244965 0.353851 0.220245
0.247772 0.353668 0.220673
0.251373 0.353455 0.221222
0.255829 0.353302 0.221985
0.260986 0.353058 0.222870
0.266876 0.352936 0.223907
0.273407 0.352844 0.225189
0.282440 0.355652 0.224792
0.292328 0.359406 0.224274
0.302765 0.363922 0.223969
0.313934 0.369324 0.223602
0.325195 0.375305 0.223694
0.337524 0.382629 0.223450
0.349701 0.390381 0.223694
0.358887 0.395630 0.223846
0.371185 0.398987 0.226074
0.384857 0.399933 0.229370
0.395721 0.397949 0.232849
0.406891 0.396027 0.236542
0.427032 0.402100 0.243805
0.447662 0.408325 0.251373
0.468628 0.414734 0.259125
0.490021 0.421387 0.267120
0.525299 0.434448 0.271423
0.567719 0.449158 0.273315
0.611267 0.462860 0.275177
0.656555 0.475708 0.276367
0.703644 0.487488 0.277008
0.752289 0.498444 0.277191
0.802460 0.508606 0.277008
0.258087 0.378021 0.235229
0.259796 0.377930 0.235474
0.261719 0.377808 0.235779
0.264404 0.377594 0.236176
0.267914 0.377441 0.236725
0.272186 0.377258 0.237427
0.277222 0.377075 0.238312
0.282928 0.376892 0.239319
0.289307 0.376770 0.240570
0.297272 0.378113 0.240936
0.307190 0.381622 0.240234
0.317230 0.385712 0.240021
0.328125 0.390594 0.239685
0.339752 0.396484 0.239227
0.351471 0.402954 0.239349
0.363861 0.410431 0.239319
0.375610 0.417816 0.239563
0.384674 0.422974 0.239990
0.398315 0.426056 0.242493
0.411682 0.426514 0.245850
0.422760 0.424469 0.249420
0.434082 0.422577 0.253174
0.454590 0.428741 0.260590
0.475464 0.435028 0.268219
0.496735 0.441559 0.276123
0.518372 0.448212 0.284180
0.550568 0.459869 0.289459
0.592834 0.474945 0.291718
0.636627 0.489136 0.293610
0.682312 0.502441 0.294861
0.728943 0.514801 0.296112
0.777863 0.526276 0.296326
0.275299 0.402344 0.251068
0.276917 0.402222 0.251312
0.278717 0.402100 0.251587
0.281342 0.401947 0.251953
0.284698 0.401764 0.252502
0.288849 0.401581 0.253174
0.293701 0.401367 0.253998
0.299316 0.401184 0.254974
0.305511 0.401031 0.256134
0.312317 0.401001 0.257507
0.321808 0.404144 0.256866
0.331909 0.407959 0.256470
0.342804 0.412598 0.255951
0.354126 0.417938 0.255615
0.365814 0.424042 0.255463
0.377899 0.430847 0.255524
0.390717 0.438843 0.255463
0.401917 0.445709 0.255585
0.410889 0.450714 0.256317
0.425873 0.453552 0.259216
0.438965 0.453522 0.262634
0.450256 0.451477 0.266266
0.461731 0.449524 0.270081
0.482452 0.455750 0.277557
0.503632 0.462158 0.285339
0.525177 0.468689 0.293304
0.547058 0.475494 0.301453
0.575928 0.485535 0.307800
0.618103 0.501038 0.310577
0.662262 0.515686 0.312469
0.708191 0.529419 0.313721
0.755890 0.542267 0.314362
0.292755 0.427002 0.267151
0.294312 0.426910 0.267395
0.296051 0.426758 0.267609
0.298523 0.426605 0.268005
0.301788 0.426422 0.268494
0.305786 0.426208 0.269135
0.310547 0.426056 0.269958
0.315948 0.425812 0.270874
0.322021 0.425690 0.272003
0.328674 0.425568 0.273285
0.337036 0.427246 0.273590
0.347076 0.430786 0.273010
0.357971 0.435150 0.272247
0.368927 0.440063 0.272034
0.380646 0.445801 0.271667
0.392395 0.452087 0.271881
0.404877 0.459351 0.271881
0.418060 0.467743 0.271759
0.428375 0.473755 0.272217
0.438232 0.478912 0.272858
0.453857 0.481415 0.276154
0.466644 0.480865 0.279663
0.478058 0.478790 0.283386
0.489716 0.476837 0.287201
0.510803 0.483185 0.294861
0.532166 0.489624 0.302673
0.553925 0.496277 0.310760
0.576080 0.503082 0.318939
0.600922 0.511322 0.326996
0.643463 0.527283 0.329742
0.687927 0.542389 0.331696
0.734192 0.556641 0.332947
0.310455 0.451965 0.283417
0.311890 0.451874 0.283661
0.313629 0.451782 0.283875
0.316010 0.451630 0.284241
0.319153 0.451447 0.284729
0.322998 0.451202 0.285339
0.327606 0.451019 0.286072
0.332886 0.450806 0.287018
0.338806 0.450653 0.288086
0.345306 0.450500 0.289307
0.352814 0.450806 0.290314
0.362427 0.454041 0.289948
0.372925 0.457947 0.289337
0.383850 0.462585 0.288910
0.395630 0.468109 0.288330
0.407349 0.473999 0.288300
0.419495 0.480652 0.288452
0.432343 0.488312 0.288452
0.445923 0.497223 0.288239
0.455536 0.502533 0.288666
0.466400 0.507080 0.289978
0.482239 0.509674 0.293396
0.494751 0.508606 0.296936
0.506287 0.506500 0.300690
0.518127 0.504517 0.304596
0.539368 0.510895 0.312286
0.561096 0.517426 0.320251
0.583099 0.524200 0.328430
0.605530 0.531067 0.336731
0.628235 0.538086 0.345276
0.670166 0.553955 0.348297
0.714325 0.569427 0.350708
0.328339 0.477295 0.299927
0.329773 0.477173 0.300140
0.331421 0.477081 0.300354
0.333710 0.476959 0.300690
0.336731 0.476715 0.301147
0.340485 0.476562 0.301788
0.344971 0.476349 0.302490
0.350098 0.476135 0.303375
0.355896 0.475952 0.304413
0.362274 0.475830 0.305603
0.369171 0.475708 0.306946
0.377899 0.477661 0.307190
0.388367 0.481415 0.306396
0.398926 0.485565 0.306213
0.410278 0.490509 0.305786
0.422485 0.496429 0.305145
0.434601 0.502747 0.305084
0.447052 0.509735 0.305237
0.460266 0.517822 0.305176
0.473053 0.525909 0.305298
0.482788 0.531403 0.305664
0.494934 0.535675 0.307404
0.510986 0.538239 0.310791
0.523132 0.536713 0.314453
0.534882 0.534576 0.318237
0.546875 0.532562 0.322235
0.568359 0.539032 0.330048
0.590302 0.545685 0.338074
0.612579 0.552429 0.346283
0.635193 0.559387 0.354675
0.658173 0.566467 0.363312
0.697021 0.580811 0.367096
0.346527 0.502930 0.316620
0.347900 0.502808 0.316833
0.349426 0.502716 0.317047
0.351685 0.502594 0.317413
0.354614 0.502411 0.317841
0.358246 0.502167 0.318390
0.362549 0.501953 0.319092
0.367584 0.501770 0.319977
0.373230 0.501556 0.320953
0.379486 0.501404 0.322083
0.386261 0.501312 0.323364
0.394012 0.501831 0.324371
0.404053 0.505188 0.323853
0.414978 0.509369 0.323059
0.426392 0.514099 0.322418
0.437683 0.519226 0.322418
0.449829 0.525269 0.322144
0.462311 0.531952 0.322113
0.475616 0.539764 0.321808
0.488708 0.547852 0.322083
0.500488 0.554993 0.322601
0.510345 0.560608 0.322845
0.523865 0.564606 0.324951
0.540161 0.567230 0.328491
0.551941 0.565094 0.332184
0.563873 0.562988 0.336060
0.575928 0.560944 0.340027
0.597748 0.567474 0.347992
0.619904 0.574188 0.356079
0.642365 0.580994 0.364380
0.665253 0.588013 0.372894
0.688477 0.595184 0.381592
0.364868 0.528809 0.333557
0.366211 0.528748 0.333771
0.367737 0.528625 0.333954
0.369873 0.528503 0.334290
0.372711 0.528320 0.334717
0.376221 0.528107 0.335266
0.380432 0.527924 0.335968
0.385315 0.527740 0.336792
0.390808 0.527496 0.337738
0.396912 0.527313 0.338837
0.403564 0.527161 0.340057
0.410767 0.527100 0.341461
0.419861 0.529388 0.341644
0.430786 0.533264 0.340668
0.441681 0.537567 0.340302
0.453491 0.542725 0.339661
0.465149 0.548157 0.339600
0.477692 0.554626 0.339325
