styles/aca/aca.CUBE
#Created by: Adobe Photoshop Export Color Lookup Plugin
TITLE "aca"
#LUT size
LUT_3D_SIZE 5
#data domain
#LUT data points
DOMAIN_MIN 0.000000 0.000000 0.000000
DOMAIN_MAX 0.903226 0.903226 0.903226
0.000000 0.000000 0.000000
0.147949 0.001862 0.001862
0.368683 0.020691 0.020691
0.623474 0.048615 0.048615
0.905334 0.081024 0.081024
0.051056 0.083191 0.045044
0.098389 0.095245 0.049744
0.318451 0.142242 0.059967
0.625946 0.157043 0.063293
0.907043 0.171021 0.092560
0.145569 0.218536 0.131744
0.180969 0.223022 0.134552
0.252777 0.245728 0.142639
0.467255 0.309967 0.168671
0.809937 0.357269 0.165314
0.258087 0.378021 0.235229
0.282928 0.376892 0.239319
0.351471 0.402954 0.239349
0.434082 0.422577 0.253174
0.636627 0.489136 0.293610
0.383484 0.555054 0.350708
0.403290 0.553955 0.353760
0.458069 0.561920 0.357605
0.546478 0.608917 0.356812
0.635193 0.618713 0.376404
0.013672 0.013672 0.048767
0.074707 0.021088 0.066742
0.293427 0.044800 0.114166
0.623474 0.048615 0.147247
0.905334 0.081024 0.162140
0.041687 0.073364 0.073364
0.144775 0.144775 0.144775
0.359467 0.137695 0.137695
0.614227 0.141785 0.141785
0.896576 0.156982 0.156982
0.135223 0.214417 0.156616
0.215332 0.265778 0.205444
0.287476 0.282562 0.209076
0.526428 0.337463 0.215912
0.876343 0.360168 0.196259
0.256622 0.380951 0.255951
0.311005 0.413910 0.291107
0.374878 0.426361 0.293945
0.459625 0.449738 0.302002
0.676208 0.515991 0.332306
0.383484 0.558685 0.367310
0.425049 0.583099 0.394623
0.475861 0.582886 0.401733
0.564545 0.625458 0.398590
0.654694 0.639465 0.414124
0.034058 0.034058 0.121582
0.092804 0.043976 0.148376
0.198486 0.073792 0.180359
0.407013 0.121338 0.239868
0.757080 0.132324 0.298157
0.065613 0.100128 0.148102
0.168884 0.168884 0.223969
0.258057 0.175751 0.246674
0.492279 0.190887 0.291779
0.844025 0.177368 0.327972
0.123932 0.196381 0.196381
0.199799 0.250641 0.250641
0.356140 0.356140 0.356140
0.603912 0.345917 0.345917
0.882935 0.340515 0.340515
0.228394 0.356903 0.293823
0.289612 0.402527 0.333466
0.434998 0.495911 0.422974
0.521515 0.515625 0.425903
0.780945 0.575836 0.431549
0.363739 0.549103 0.405212
0.419006 0.585815 0.435791
0.532135 0.654266 0.508240
0.612457 0.671143 0.510620
0.706848 0.695038 0.517548
0.057922 0.057922 0.206757
0.115143 0.071808 0.225403
0.230438 0.100311 0.294342
0.345093 0.138947 0.315308
0.536041 0.204834 0.375610
0.093842 0.130890 0.237183
0.199432 0.199432 0.316467
0.278625 0.207642 0.348267
0.394379 0.222931 0.370270
0.599731 0.267761 0.423523
0.152283 0.227661 0.283691
0.229858 0.281769 0.341095
0.383789 0.383789 0.448822
0.487640 0.389587 0.474274
0.742035 0.401093 0.520538
0.222290 0.341644 0.341644
0.279785 0.382935 0.382935
0.416046 0.477783 0.477783
0.603058 0.603058 0.603058
0.874695 0.591431 0.591431
0.336823 0.513855 0.449188
0.382996 0.549164 0.481201
0.504913 0.638947 0.561188
0.689362 0.756744 0.675995
0.784821 0.778290 0.678528
0.084290 0.084290 0.301025
0.144775 0.100708 0.315247
0.243225 0.133881 0.381012
0.396545 0.165863 0.457001
0.507965 0.212280 0.465393
0.123596 0.162781 0.334442
0.232544 0.232544 0.417542
0.304504 0.245026 0.437408
0.434631 0.254486 0.505066
0.548737 0.282013 0.510986
0.185486 0.263885 0.383728
0.265167 0.318512 0.443878
0.417236 0.417236 0.551727
0.508301 0.424438 0.587311
0.635162 0.435089 0.607513
0.252899 0.375275 0.437256
0.311554 0.416626 0.480408
0.448425 0.510529 0.577911
0.634857 0.634857 0.705933
0.747955 0.640289 0.733337
0.332153 0.503052 0.503052
0.377319 0.535400 0.535400
0.494568 0.617737 0.617737
0.668274 0.736755 0.736755
0.876190 0.876190 0.876190
